X:80
T:Y Delyn - The Harp
M:6/8
L:1/8
Q:200
C:Trad.
R:Jig
K:D
B | A2 F D2 B | A2 G E2 G | FED AGF | FEE E2 B | A2 F D2 B |
A2 G E2 G | FED EDE | D3 D2 :|| A | E2 E E2 A|
F2 F F2 A | AGG GFF | FEE E2 A | E2 E E2 A |
F2 F F2 A | dBG EFG | A3- A2 B | A2 F D2 B | A2 G E2 G|
FED AGF | FEE E2 B | A2 F D2 B | A2 G E2 G | FED E2 E| D3- D2 ||
